react/assets/icons/music.svg

<svg role="img" xmlns="http://www.w3.org/2000/svg" width="48px" height="48px" viewBox="0 0 24 24" aria-labelledby="musicIconTitle" stroke-linecap="square" stroke-linejoin="miter" fill="none"> <title id="musicIconTitle">Music</title> <polyline stroke-linecap="round" points="8 18 8 6 20 3 20 16"/> <path d="M5.9470822 20.5104863C4.47941733 21.0446727 3.00094415 20.6845313 2.64481994 19.706088 2.28869572 18.7276448 3.18977746 17.5014162 4.65744233 16.9672299 6.1251072 16.4330436 7.60358037 16.793185 7.95970459 17.7716282 8.31582881 18.7500715 7.41474707 19.9763 5.9470822 20.5104863zM17.9470822 18.5104863C16.4794173 19.0446727 15.0009442 18.6845313 14.6448199 17.706088 14.2886957 16.7276448 15.1897775 15.5014162 16.6574423 14.9672299 18.1251072 14.4330436 19.6035804 14.793185 19.9597046 15.7716282 20.3158288 16.7500715 19.4147471 17.9763 17.9470822 18.5104863z"/> </svg>

<svg xmlns="http://www.w3.org/2000/svg" width="48" height="48" viewBox="0 0 24 24" aria-labelledby="musicIconTitle" stroke-linecap="square" fill="none"><path stroke-linecap="round" d="M8 18V6l12-3v13"/><path d="M5.947 20.51c-1.468.535-2.946.175-3.302-.804-.356-.978.545-2.205 2.012-2.739 1.468-.534 2.947-.174 3.303.805.356.978-.545 2.204-2.013 2.738zm12-2c-1.468.535-2.946.175-3.302-.804-.356-.978.545-2.205 2.012-2.739 1.468-.534 2.947-.174 3.303.805.356.978-.545 2.204-2.013 2.738z"/></svg>
